icon-themes/breeze_svg/cmd/lc_exportto.svg

<svg viewBox="0 0 24 24" xmlns="http://www.w3.org/2000/svg"><path d="m5 4v12 1h5.28125l-2.28125 2.28125.71875.71875 2.78125-2.78125.71875-.71875-.71875-.71875-2.78125-2.78125-.71875.71875 2.28125 2.28125h-4.28125v-11h12v4 10h-2-4v1h4 3v-1-10-5h-1z" fill="#4d4d4d"/></svg>

<svg xmlns="http://www.w3.org/2000/svg" viewBox="0 0 24 24">
 <path 
     style="fill:#4d4d4d" 
     d="M 5 4 L 5 16 L 5 17 L 10.28125 17 L 8 19.28125 L 8.71875 20 L 11.5 17.21875 L 12.21875 16.5 L 11.5 15.78125 L 8.71875 13 L 8 13.71875 L 10.28125 16 L 6 16 L 6 5 L 18 5 L 18 9 L 18 19 L 16 19 L 12 19 L 12 20 L 16 20 L 19 20 L 19 19 L 19 9 L 19 4 L 18 4 L 5 4 z "
     />
 </svg>
